public/cards/10-H.svg

<?xml version="1.0" encoding="UTF-8"?>
<svg width="360px" height="540px" viewBox="0 0 360 540" version="1.1" xmlns="http://www.w3.org/2000/svg" xmlns:xlink="http://www.w3.org/1999/xlink">
    <!-- Generator: Sketch 55.2 (78181) - https://sketchapp.com -->
    <title>10-H</title>
    <desc>Created with Sketch.</desc>
    <g id="Page-1" stroke="none" stroke-width="1" fill="none" fill-rule="evenodd">
        <g id="English_pattern_playing_cards_deck" transform="translate(-3510.000000, -571.000000)" fill-rule="nonzero">
            <g id="10-H" transform="translate(3510.000000, 570.637818)">
                <rect id="rect6472-5" stroke="#000000" stroke-width="0.99999976" fill="#FFFFFF" x="0.5" y="0.86218" width="359" height="539" rx="29.944447"></rect>
                <g id="g3076-1" transform="translate(10.000000, 30.362180)" fill="#FF5555">
                    <polygon id="rect3156-5-0-7" points="5 0 0 7 0 14 5 7 5 50 10 50 10 0"></polygon>
                    <path d="M25,1.99999999e-05 C19.46,1.99999999e-05 15,4.46002 15,10.00002 L15,40.00002 C15,45.54002 19.46,50.00002 25,50.00002 C30.54,50.00002 35,45.54002 35,40.00002 L35,10.00002 C35,4.46002 30.54,1.99999999e-05 25,1.99999999e-05 Z M25,5.00002 C27.77,5.00002 30,7.23002 30,10.00002 L30,40.00002 C30,42.77002 27.77,45.00002 25,45.00002 C22.23,45.00002 20,42.77002 20,40.00002 L20,10.00002 C20,7.23002 22.23,5.00002 25,5.00002 Z" id="rect3158-7-9-1"></path>
                </g>
                <g id="g3076-0-1" transform="translate(332.500000, 485.362200) rotate(-180.000000) translate(-332.500000, -485.362200) translate(315.000000, 460.362200)" fill="#FF5555">
                    <polygon id="rect3156-5-0-9-5" points="5 0 0 7 0 14 5 7 5 50 10 50 10 0"></polygon>
                    <path d="M25,1.99999999e-05 C19.46,1.99999999e-05 15,4.46002 15,10.00002 L15,40.00002 C15,45.54002 19.46,50.00002 25,50.00002 C30.54,50.00002 35,45.54002 35,40.00002 L35,10.00002 C35,4.46002 30.54,1.99999999e-05 25,1.99999999e-05 Z M25,5.00002 C27.77,5.00002 30,7.23002 30,10.00002 L30,40.00002 C30,42.77002 27.77,45.00002 25,45.00002 C22.23,45.00002 20,42.77002 20,40.00002 L20,10.00002 C20,7.23002 22.23,5.00002 25,5.00002 Z" id="rect3158-7-9-4-2"></path>
                </g>
                <path d="M29.5,99.36218 C29.5,93.83933 26.642135,90.36218 22.5,90.36218 C18.357865,90.36218 15,94.83933 15,100.36218 C15.01745,100.83998 15.0091,101.30777 15,101.76843 C15,105.41767 16.338425,108.95685 17.5,112.26843 C18.694515,115.67391 20.416785,118.65877 22.03125,121.70593 C24.531865,126.42563 30,135.36218 30,135.36218 C30,135.36218 35.468135,126.42563 37.96875,121.70593 C39.583215,118.65877 41.305485,115.67391 42.5,112.26843 C43.661575,108.95685 45,105.41767 45,101.76843 C44.9858,101.28123 44.9907,100.81112 45,100.36218 C45,94.83933 41.642135,90.36218 37.5,90.36218 C33.357865,90.36218 30.5,93.83933 30.5,99.36218 C30.5,100.36218 29.5,100.36218 29.5,99.36218 Z" id="path3126-1-7" fill="#FF5555"></path>
                <path d="M329.5,441.36218 C329.5,446.88503 326.64213,450.36218 322.5,450.36218 C318.35786,450.36218 315,445.88503 315,440.36218 C315.0174,439.88438 315.009,439.41659 315,438.95593 C315,435.30669 316.33842,431.76751 317.5,428.45593 C318.69452,425.05045 320.41678,422.06559 322.03125,419.01843 C324.53186,414.29873 330,405.36218 330,405.36218 C330,405.36218 335.46814,414.29873 337.96875,419.01843 C339.58321,422.06559 341.30548,425.05045 342.5,428.45593 C343.66157,431.76751 345,435.30669 345,438.95593 C344.9858,439.44313 344.991,439.91324 345,440.36218 C345,445.88503 341.64213,450.36218 337.5,450.36218 C333.35786,450.36218 330.5,446.88503 330.5,441.36218 C330.5,440.36218 329.5,440.36218 329.5,441.36218 Z" id="path3126-1-4" fill="#FF5555"></path>
                <path d="M89,63.36218 C89,52.31649 83.28427,45.36218 75,45.36218 C66.71573,45.36218 60,54.31649 60,65.36218 C60.0349,66.31777 60.0182,67.25337 60,68.17468 C60,75.47316 62.67685,82.55152 65,89.17468 C67.38903,95.98564 70.83357,101.95535 74.0625,108.04968 C79.06373,117.48908 90,135.36218 90,135.36218 C90,135.36218 100.93627,117.48908 105.9375,108.04968 C109.16643,101.95535 112.61097,95.98564 115,89.17468 C117.32315,82.55152 120,75.47316 120,68.17468 C119.9716,67.20028 119.9814,66.26006 120,65.36218 C120,54.31649 113.28427,45.36218 105,45.36218 C96.71573,45.36218 91,52.31649 91,63.36218 C91,65.36218 89,65.36218 89,63.36218 Z" id="path3126" fill="#FF5555"></path>
                <path d="M269,63.36218 C269,52.31649 263.28427,45.36218 255,45.36218 C246.71573,45.36218 240,54.31649 240,65.36218 C240.0349,66.31777 240.0182,67.25337 240,68.17468 C240,75.47316 242.67685,82.55152 245,89.17468 C247.38903,95.98564 250.83357,101.95535 254.0625,108.04968 C259.06373,117.48908 270,135.36218 270,135.36218 C270,135.36218 280.93627,117.48908 285.9375,108.04968 C289.16643,101.95535 292.61097,95.98564 295,89.17468 C297.32315,82.55152 300,75.47316 300,68.17468 C299.9716,67.20028 299.9814,66.26006 300,65.36218 C300,54.31649 293.28427,45.36218 285,45.36218 C276.71573,45.36218 271,52.31649 271,63.36218 C271,65.36218 269,65.36218 269,63.36218 Z" id="path3126-09" fill="#FF5555"></path>
                <path d="M179,123.36218 C179,112.31649 173.28427,105.36218 165,105.36218 C156.71573,105.36218 150,114.31649 150,125.36218 C150.0349,126.31777 150.0182,127.25337 150,128.17468 C150,135.47316 152.67685,142.55152 155,149.17468 C157.38903,155.98564 160.83357,161.95535 164.0625,168.04968 C169.06373,177.48908 180,195.36218 180,195.36218 C180,195.36218 190.93627,177.48908 195.9375,168.04968 C199.16643,161.95535 202.61097,155.98564 205,149.17468 C207.32315,142.55152 210,135.47316 210,128.17468 C209.9716,127.20028 209.9814,126.26006 210,125.36218 C210,114.31649 203.28427,105.36218 195,105.36218 C186.71573,105.36218 181,112.31649 181,123.36218 C181,125.36218 179,125.36218 179,123.36218 Z" id="path3126-48" fill="#FF5555"></path>
                <path d="M89,183.36218 C89,172.31649 83.28427,165.36218 75,165.36218 C66.71573,165.36218 60,174.31649 60,185.36218 C60.0349,186.31777 60.0182,187.25337 60,188.17468 C60,195.47316 62.67685,202.55152 65,209.17468 C67.38903,215.98564 70.83357,221.95535 74.0625,228.04968 C79.06373,237.48908 90,255.36218 90,255.36218 C90,255.36218 100.93627,237.48908 105.9375,228.04968 C109.16643,221.95535 112.61097,215.98564 115,209.17468 C117.32315,202.55152 120,195.47316 120,188.17468 C119.9716,187.20028 119.9814,186.26006 120,185.36218 C120,174.31649 113.28427,165.36218 105,165.36218 C96.71573,165.36218 91,172.31649 91,183.36218 C91,185.36218 89,185.36218 89,183.36218 Z" id="path3126-82" fill="#FF5555"></path>
                <path d="M269,183.36218 C269,172.31649 263.28427,165.36218 255,165.36218 C246.71573,165.36218 240,174.31649 240,185.36218 C240.0349,186.31777 240.0182,187.25337 240,188.17468 C240,195.47316 242.67685,202.55152 245,209.17468 C247.38903,215.98564 250.83357,221.95535 254.0625,228.04968 C259.06373,237.48908 270,255.36218 270,255.36218 C270,255.36218 280.93627,237.48908 285.9375,228.04968 C289.16643,221.95535 292.61097,215.98564 295,209.17468 C297.32315,202.55152 300,195.47316 300,188.17468 C299.9716,187.20028 299.9814,186.26006 300,185.36218 C300,174.31649 293.28427,165.36218 285,165.36218 C276.71573,165.36218 271,172.31649 271,183.36218 C271,185.36218 269,185.36218 269,183.36218 Z" id="path3126-455" fill="#FF5555"></path>
                <path d="M89,357.36218 C89,368.40787 83.28427,375.36218 75,375.36218 C66.71573,375.36218 60,366.40787 60,355.36218 C60.0349,354.40659 60.0182,353.47099 60,352.54968 C60,345.2512 62.67685,338.17284 65,331.54968 C67.38903,324.73872 70.83357,318.76901 74.0625,312.67468 C79.06373,303.23528 90,285.36218 90,285.36218 C90,285.36218 100.93627,303.23528 105.9375,312.67468 C109.16643,318.76901 112.61097,324.73872 115,331.54968 C117.32315,338.17284 120,345.2512 120,352.54968 C119.9716,353.52408 119.9814,354.4643 120,355.36218 C120,366.40787 113.28427,375.36218 105,375.36218 C96.71573,375.36218 91,368.40787 91,357.36218 C91,355.36218 89,355.36218 89,357.36218 Z" id="path3126-1" fill="#FF5555"></path>
                <path d="M269,357.36218 C269,368.40787 263.28427,375.36218 255,375.36218 C246.71573,375.36218 240,366.40787 240,355.36218 C240.0349,354.40659 240.0182,353.47099 240,352.54968 C240,345.2512 242.67685,338.17284 245,331.54968 C247.38903,324.73872 250.83357,318.76901 254.0625,312.67468 C259.06373,303.23528 270,285.36218 270,285.36218 C270,285.36218 280.93627,303.23528 285.9375,312.67468 C289.16643,318.76901 292.61097,324.73872 295,331.54968 C297.32315,338.17284 300,345.2512 300,352.54968 C299.9716,353.52408 299.9814,354.4643 300,355.36218 C300,366.40787 293.28427,375.36218 285,375.36218 C276.71573,375.36218 271,368.40787 271,357.36218 C271,355.36218 269,355.36218 269,357.36218 Z" id="path3126-71" fill="#FF5555"></path>
                <path d="M179,417.36218 C179,428.40787 173.28427,435.36218 165,435.36218 C156.71573,435.36218 150,426.40787 150,415.36218 C150.0349,414.40659 150.0182,413.47099 150,412.54968 C150,405.2512 152.67685,398.17284 155,391.54968 C157.38903,384.73872 160.83357,378.76901 164.0625,372.67468 C169.06373,363.23528 180,345.36218 180,345.36218 C180,345.36218 190.93627,363.23528 195.9375,372.67468 C199.16643,378.76901 202.61097,384.73872 205,391.54968 C207.32315,398.17284 210,405.2512 210,412.54968 C209.9716,413.52408 209.9814,414.4643 210,415.36218 C210,426.40787 203.28427,435.36218 195,435.36218 C186.71573,435.36218 181,428.40787 181,417.36218 C181,415.36218 179,415.36218 179,417.36218 Z" id="path3126-15" fill="#FF5555"></path>
                <path d="M89,477.3622 C89,488.4079 83.28427,495.3622 75,495.3622 C66.71573,495.3622 60,486.40789 60,475.3622 C60.0349,474.40661 60.0182,473.47101 60,472.5497 C60,465.25122 62.67685,458.17286 65,451.5497 C67.38903,444.73874 70.83357,438.76903 74.0625,432.6747 C79.06373,423.2353 90,405.36218 90,405.36218 C90,405.36218 100.93627,423.2353 105.9375,432.6747 C109.16643,438.76903 112.61097,444.73874 115,451.5497 C117.32315,458.17286 120,465.25122 120,472.5497 C119.9716,473.5241 119.9814,474.46432 120,475.3622 C120,486.40789 113.28427,495.3622 105,495.3622 C96.71573,495.3622 91,488.4079 91,477.3622 C91,475.3622 89,475.3622 89,477.3622 L89,477.3622 Z" id="path3126-27" fill="#FF5555"></path>
                <path d="M269,477.3622 C269,488.4079 263.28427,495.3622 255,495.3622 C246.71573,495.3622 240,486.40789 240,475.3622 C240.0349,474.40661 240.0182,473.47101 240,472.5497 C240,465.25122 242.67685,458.17286 245,451.5497 C247.38903,444.73874 250.83357,438.76903 254.0625,432.6747 C259.06373,423.2353 270,405.36218 270,405.36218 C270,405.36218 280.93627,423.2353 285.9375,432.6747 C289.16643,438.76903 292.61097,444.73874 295,451.5497 C297.32315,458.17286 300,465.25122 300,472.5497 C299.9716,473.5241 299.9814,474.46432 300,475.3622 C300,486.40789 293.28427,495.3622 285,495.3622 C276.71573,495.3622 271,488.4079 271,477.3622 C271,475.3622 269,475.3622 269,477.3622 L269,477.3622 Z" id="path3126-6" fill="#FF5555"></path>
            </g>
        </g>
    </g>
</svg>

<svg width="360" height="540" xmlns="http://www.w3.org/2000/svg"><g transform="translate(0 -.362)" fill-rule="nonzero" fill="none"><rect stroke="#000" fill="#FFF" x=".5" y=".862" width="359" height="539" rx="29.944"/><g fill="#F55"><path d="M15 30.362l-5 7v7l5-7v43h5v-50zM35 30.362c-5.54 0-10 4.46-10 10v30c0 5.54 4.46 10 10 10s10-4.46 10-10v-30c0-5.54-4.46-10-10-10zm0 5c2.77 0 5 2.23 5 5v30c0 2.77-2.23 5-5 5s-5-2.23-5-5v-30c0-2.77 2.23-5 5-5z"/></g><g fill="#F55"><path d="M345 510.362l5-7v-7l-5 7v-43h-5v50zM325 510.362c5.54 0 10-4.46 10-10v-30c0-5.54-4.46-10-10-10s-10 4.46-10 10v30c0 5.54 4.46 10 10 10zm0-5c-2.77 0-5-2.23-5-5v-30c0-2.77 2.23-5 5-5s5 2.23 5 5v30c0 2.77-2.23 5-5 5z"/></g><path d="M29.5 99.362c0-5.523-2.858-9-7-9-4.142 0-7.5 4.477-7.5 10 .017.478.01.946 0 1.406 0 3.65 1.338 7.189 2.5 10.5 1.195 3.406 2.917 6.39 4.531 9.438 2.5 4.72 7.969 13.656 7.969 13.656s5.468-8.936 7.969-13.656c1.614-3.047 3.336-6.032 4.531-9.438 1.162-3.311 2.5-6.85 2.5-10.5-.014-.487-.01-.957 0-1.406 0-5.523-3.358-10-7.5-10-4.142 0-7 3.477-7 9 0 1-1 1-1 0zM329.5 441.362c0 5.523-2.858 9-7 9-4.142 0-7.5-4.477-7.5-10 .017-.478.009-.945 0-1.406 0-3.65 1.338-7.188 2.5-10.5 1.195-3.406 2.917-6.39 4.531-9.438 2.5-4.72 7.969-13.656 7.969-13.656s5.468 8.937 7.969 13.656c1.614 3.048 3.336 6.032 4.531 9.438 1.162 3.312 2.5 6.85 2.5 10.5-.014.487-.009.957 0 1.406 0 5.523-3.358 10-7.5 10-4.142 0-7-3.477-7-9 0-1-1-1-1 0zM89 63.362c0-11.046-5.716-18-14-18-8.284 0-15 8.954-15 20 .035.956.018 1.891 0 2.813 0 7.298 2.677 14.377 5 21 2.389 6.81 5.834 12.78 9.063 18.875 5 9.44 15.937 27.312 15.937 27.312s10.936-17.873 15.938-27.312c3.228-6.095 6.673-12.064 9.062-18.875 2.323-6.623 5-13.702 5-21a56.086 56.086 0 010-2.813c0-11.046-6.716-20-15-20-8.284 0-14 6.954-14 18 0 2-2 2-2 0zM269 63.362c0-11.046-5.716-18-14-18-8.284 0-15 8.954-15 20 .035.956.018 1.891 0 2.813 0 7.298 2.677 14.377 5 21 2.389 6.81 5.834 12.78 9.063 18.875 5 9.44 15.937 27.312 15.937 27.312s10.936-17.873 15.938-27.312c3.228-6.095 6.673-12.064 9.062-18.875 2.323-6.623 5-13.702 5-21a56.086 56.086 0 010-2.813c0-11.046-6.716-20-15-20-8.284 0-14 6.954-14 18 0 2-2 2-2 0zM179 123.362c0-11.046-5.716-18-14-18-8.284 0-15 8.954-15 20 .035.956.018 1.891 0 2.813 0 7.298 2.677 14.377 5 21 2.389 6.81 5.834 12.78 9.063 18.875 5 9.44 15.937 27.312 15.937 27.312s10.936-17.873 15.938-27.312c3.228-6.095 6.673-12.064 9.062-18.875 2.323-6.623 5-13.702 5-21a56.086 56.086 0 010-2.813c0-11.046-6.716-20-15-20-8.284 0-14 6.954-14 18 0 2-2 2-2 0zM89 183.362c0-11.046-5.716-18-14-18-8.284 0-15 8.954-15 20 .035.956.018 1.891 0 2.813 0 7.298 2.677 14.377 5 21 2.389 6.81 5.834 12.78 9.063 18.875 5 9.44 15.937 27.312 15.937 27.312s10.936-17.873 15.938-27.312c3.228-6.095 6.673-12.064 9.062-18.875 2.323-6.623 5-13.702 5-21a56.086 56.086 0 010-2.813c0-11.046-6.716-20-15-20-8.284 0-14 6.954-14 18 0 2-2 2-2 0zM269 183.362c0-11.046-5.716-18-14-18-8.284 0-15 8.954-15 20 .035.956.018 1.891 0 2.813 0 7.298 2.677 14.377 5 21 2.389 6.81 5.834 12.78 9.063 18.875 5 9.44 15.937 27.312 15.937 27.312s10.936-17.873 15.938-27.312c3.228-6.095 6.673-12.064 9.062-18.875 2.323-6.623 5-13.702 5-21a56.086 56.086 0 010-2.813c0-11.046-6.716-20-15-20-8.284 0-14 6.954-14 18 0 2-2 2-2 0zM89 357.362c0 11.046-5.716 18-14 18-8.284 0-15-8.954-15-20 .035-.955.018-1.891 0-2.812 0-7.299 2.677-14.377 5-21 2.389-6.811 5.834-12.781 9.063-18.875 5-9.44 15.937-27.313 15.937-27.313s10.936 17.873 15.938 27.313c3.228 6.094 6.673 12.064 9.062 18.875 2.323 6.623 5 13.701 5 21a56.086 56.086 0 000 2.812c0 11.046-6.716 20-15 20-8.284 0-14-6.954-14-18 0-2-2-2-2 0zM269 357.362c0 11.046-5.716 18-14 18-8.284 0-15-8.954-15-20 .035-.955.018-1.891 0-2.812 0-7.299 2.677-14.377 5-21 2.389-6.811 5.834-12.781 9.063-18.875 5-9.44 15.937-27.313 15.937-27.313s10.936 17.873 15.938 27.313c3.228 6.094 6.673 12.064 9.062 18.875 2.323 6.623 5 13.701 5 21a56.086 56.086 0 000 2.812c0 11.046-6.716 20-15 20-8.284 0-14-6.954-14-18 0-2-2-2-2 0zM179 417.362c0 11.046-5.716 18-14 18-8.284 0-15-8.954-15-20 .035-.955.018-1.891 0-2.812 0-7.299 2.677-14.377 5-21 2.389-6.811 5.834-12.781 9.063-18.875 5-9.44 15.937-27.313 15.937-27.313s10.936 17.873 15.938 27.313c3.228 6.094 6.673 12.064 9.062 18.875 2.323 6.623 5 13.701 5 21a56.086 56.086 0 000 2.812c0 11.046-6.716 20-15 20-8.284 0-14-6.954-14-18 0-2-2-2-2 0zM89 477.362c0 11.046-5.716 18-14 18-8.284 0-15-8.954-15-20 .035-.955.018-1.891 0-2.812 0-7.299 2.677-14.377 5-21 2.389-6.811 5.834-12.781 9.063-18.875 5-9.44 15.937-27.313 15.937-27.313s10.936 17.873 15.938 27.313c3.228 6.094 6.673 12.064 9.062 18.875 2.323 6.623 5 13.701 5 21a56.086 56.086 0 000 2.812c0 11.046-6.716 20-15 20-8.284 0-14-6.954-14-18 0-2-2-2-2 0zM269 477.362c0 11.046-5.716 18-14 18-8.284 0-15-8.954-15-20 .035-.955.018-1.891 0-2.812 0-7.299 2.677-14.377 5-21 2.389-6.811 5.834-12.781 9.063-18.875 5-9.44 15.937-27.313 15.937-27.313s10.936 17.873 15.938 27.313c3.228 6.094 6.673 12.064 9.062 18.875 2.323 6.623 5 13.701 5 21a56.086 56.086 0 000 2.812c0 11.046-6.716 20-15 20-8.284 0-14-6.954-14-18 0-2-2-2-2 0z" fill="#F55"/></g></svg>
